X:1
T:Malta, 87.87 D
T:Malta, 87.87 D
T:Sabbath Hymn and Tune Book, 1859
T:Public Domain Courtesy of the Cyber Hymnal™
C:Sabbath Hymn and Tune Book, 1859
Z:Public Domain
Z:Courtesy of the Cyber Hymnal™
%%score ( 1 2 ) ( 3 4 )
L:1/8
Q:1/4=140
M:6/4
K:G
V:1 treble 
V:2 treble 
V:3 bass 
V:4 bass 
V:1
 [B,G]4 [DA]2 [DB]4 [DA]2 | [B,G]4 E2 [EA]4 [DF]2 | [DG]4 [DA]2 [DB]4 [Dd]2 | [Ec]4 [DB]2 [DA]6 | %4
 [B,G]4 [DA]2 [DB]4 [DA]2 | [B,G]4 E2 [EA]4 [DF]2 | [DG]4 [DA]2 [DB]4 [Dd]2 | [Ec]4 [DA]2 [B,G]6 | %8
 [GB]4 [Gc]2 [Gd]4 [Gd]2 | [Ge]4 [Gd]2 [Gd]4 [DB]2 | [DA]4 [DB]2 [Dc]4 [DA]2 | [DB]4 [Dd]2 [DA]6 | %12
 [B,G]4 [DA]2 [DB]4 [DA]2 | [B,G]4 E2 [EA]4 [DF]2 | [DG]4 [DA]2 [DB]4 [Dd]2 | [Ec]4 [DA]2 [B,G]6 |] %16
V:2
 x12 | x4 E2 x6 | x12 | x12 | x12 | x4 E2 x6 | x12 | x12 | x12 | x12 | x12 | x12 | x12 | x4 E2 x6 | %14
 x12 | x12 |] %16
V:3
 [G,,G,]4 [D,F,]2 G,4 [D,F,]2 | [E,G,]4 [C,G,]2 [A,,C]4 [D,A,]2 | [B,,G,]4 [D,F,]2 G,4 [B,,G,]2 | %3
 [C,G,]4 [G,,G,]2 [D,F,]6 | [G,,G,]4 [D,F,]2 G,4 [D,F,]2 | [E,G,]4 [C,G,]2 [A,,C]4 [D,A,]2 | %6
 [B,,G,]4 [D,F,]2 G,4 [B,,G,]2 | [C,G,]4 [D,F,]2 [G,,G,]6 | G,4 [G,A,]2 [G,B,]4 [G,B,]2 | %9
 [G,C]4 [G,B,]2 [G,B,]4 G,2 | [D,F,]4 [D,G,]2 [D,A,]4 [D,F,]2 | G,4 [B,,G,]2 [D,F,]6 | %12
 [G,,G,]4 [D,F,]2 G,4 [D,F,]2 | [E,G,]4 [C,G,]2 [A,,C]4 [D,A,]2 | [B,,G,]4 [D,F,]2 G,4 [B,,G,]2 | %15
 [C,G,]4 [D,F,]2 [G,,G,]6 |] %16
V:4
 x6 G,4 x2 | x12 | x6 G,4 x2 | x12 | x6 G,4 x2 | x12 | x6 G,4 x2 | x12 | G,4 x8 | x10 G,2 | x12 | %11
 G,4 x8 | x6 G,4 x2 | x12 | x6 G,4 x2 | x12 |] %16

